components/Common/Svg/svgs/videoAudio.svg

<svg width="40" height="40" viewBox="0 0 40 40" fill="none" xmlns="http://www.w3.org/2000/svg">
<path fill-rule="evenodd" clip-rule="evenodd" d="M15.3519 13.545C15.5396 13.7426 15.7341 13.9473 15.9493 14.1624C16.5624 14.7753 16.8569 15.4195 16.8389 16.1271C16.8308 16.4435 16.7605 16.7231 16.6925 16.9444C16.6583 17.0554 16.6211 17.1628 16.5888 17.2552L16.5792 17.2828C16.5494 17.3681 16.5238 17.4414 16.4998 17.5158C16.3998 17.8255 16.3688 18.0336 16.4286 18.277C16.4678 18.4368 16.5589 18.6597 16.7701 18.9564C16.909 19.1516 17.0998 19.3787 17.362 19.6408C18.0227 20.3013 18.461 20.5088 18.7257 20.5736C18.8047 20.593 18.88 20.6028 18.9563 20.6037C19.1146 20.6057 19.2772 20.5696 19.4861 20.5019C19.5604 20.4778 19.634 20.452 19.7193 20.4222L19.7465 20.4126C19.8388 20.3803 19.9462 20.343 20.0571 20.3088C20.2783 20.2405 20.5578 20.1699 20.8742 20.1616C21.5818 20.1429 22.2264 20.4372 22.8396 21.05C23.0525 21.2628 23.2549 21.4554 23.4504 21.6413L23.4574 21.648C23.6509 21.832 23.8447 22.0164 24.0179 22.194C24.3461 22.5305 24.7171 22.9549 24.8934 23.4877C25.094 24.0938 25.0004 24.6883 24.7096 25.257C24.4406 25.7831 23.9865 26.3234 23.3949 26.9148C23.3802 26.9295 23.3651 26.9437 23.3495 26.9575L23.331 26.9763L23.3255 26.9819C23.2959 27.0122 23.2485 27.0609 23.1918 27.1147C23.0683 27.2322 22.8942 27.3817 22.6639 27.524C22.1897 27.8171 21.5325 28.0448 20.668 27.9924C18.9993 27.8914 16.7224 26.7615 13.4817 23.5217C10.2404 20.2813 9.10959 18.0044 9.00766 16.3355C8.95485 15.471 9.18206 14.8137 9.47488 14.3392C9.6171 14.1087 9.76656 13.9345 9.88398 13.8109C9.93802 13.754 9.98674 13.7065 10.0171 13.6768L10.0225 13.6715L10.0415 13.6528C10.0553 13.6372 10.0695 13.6221 10.0842 13.6074C10.6771 13.0145 11.2181 12.5597 11.7444 12.2905C12.3135 11.9993 12.9085 11.9056 13.5151 12.1073C14.0476 12.2844 14.4714 12.6565 14.807 12.9846C14.9822 13.1559 15.1642 13.3475 15.3459 13.5387L15.3519 13.545ZM11.4243 15.0981L11.4197 15.1026C11.387 15.1345 11.3617 15.1593 11.334 15.1884C11.281 15.2442 11.2265 15.3091 11.1769 15.3896C11.086 15.5368 10.9779 15.788 11.0039 16.2136C11.0596 17.125 11.7425 18.9549 14.8957 22.1072C18.0485 25.2592 19.878 25.9409 20.7889 25.9961C21.2142 26.0218 21.4652 25.9137 21.6124 25.8227C21.6928 25.773 21.7578 25.7185 21.8136 25.6654C21.8427 25.6377 21.8681 25.6117 21.8999 25.5791L21.904 25.5749C21.918 25.5604 21.9561 25.521 22.0022 25.4791C22.5393 24.9399 22.8073 24.5843 22.9289 24.3465C22.9856 24.2356 22.9968 24.1759 22.9992 24.1552C23.0008 24.1409 23.0004 24.1333 22.9947 24.116C22.972 24.0473 22.8883 23.9003 22.5861 23.5903C22.444 23.4447 22.2787 23.2871 22.079 23.0971L22.0667 23.0854C21.8743 22.9024 21.6562 22.695 21.4256 22.4644C21.2559 22.2949 21.1365 22.2194 21.0563 22.1862C20.9895 22.1585 20.9499 22.16 20.931 22.1608L20.9269 22.1609C20.8716 22.1624 20.79 22.1756 20.647 22.2198C20.5757 22.2418 20.5002 22.2678 20.4072 22.3004L20.379 22.3102C20.2967 22.3391 20.2007 22.3727 20.1024 22.4046C19.6438 22.5531 19.0168 22.7041 18.2497 22.5162C17.5042 22.3335 16.7569 21.864 15.948 21.0552C15.139 20.2465 14.6692 19.4993 14.4862 18.7538C14.3413 18.1635 14.3971 17.656 14.498 17.2444C14.5282 17.1213 14.5625 17.0068 14.5966 16.9011C14.6283 16.8028 14.6619 16.7067 14.6907 16.6244L14.7005 16.5962C14.733 16.5032 14.7589 16.4276 14.7809 16.3563C14.8249 16.2132 14.8381 16.1316 14.8395 16.0762L14.8397 16.072C14.8412 16.0303 14.8466 15.888 14.5353 15.5768C14.3014 15.343 14.0917 15.1223 13.9068 14.9277L13.902 14.9226C13.712 14.7226 13.5545 14.5571 13.4088 14.4146C13.0987 14.1115 12.9522 14.0278 12.884 14.0051C12.8671 13.9995 12.86 13.9991 12.8462 14.0008C12.8259 14.0031 12.7663 14.0142 12.6552 14.071C12.4172 14.1928 12.0607 14.4615 11.5198 15.0002C11.4781 15.0461 11.4387 15.0842 11.4243 15.0981Z" fill="#161616"/>
<path fill-rule="evenodd" clip-rule="evenodd" d="M3 13C3 9.13401 6.13401 6 10 6H24C27.866 6 31 9.13401 31 13V14.9385L32.9632 12.7639C33.3285 12.3592 33.7935 12.0891 34.3176 12.0183C34.8383 11.9479 35.3328 12.0856 35.7381 12.346C36.5378 12.8599 37.0008 13.8348 37 14.9074L36.9865 26.1002C36.9856 27.1727 36.5211 28.1467 35.7196 28.6581C35.3135 28.9171 34.8189 29.0528 34.2991 28.9811C33.776 28.9089 33.3121 28.6384 32.9478 28.2338L31 26.0677V27C31 30.866 27.866 34 24 34H10C6.13401 34 3 30.866 3 27V13ZM31 23.0766V17.9231L34.4479 14.1039C34.4967 14.0499 34.5341 14.0242 34.5548 14.0127C34.5745 14.0017 34.5856 14.0003 34.5856 14.0003C34.5856 14.0003 34.587 14.0001 34.5897 14.0002C34.5921 14.0003 34.5954 14.0007 34.5996 14.0017C34.6093 14.0041 34.629 14.0107 34.657 14.0287C34.7751 14.1046 35.0002 14.3751 35 14.906L34.9865 26.0988C34.9861 26.6298 34.7608 26.8974 34.6439 26.972C34.6162 26.9896 34.5967 26.9961 34.587 26.9984C34.5781 27.0006 34.5726 26.9999 34.5726 26.9999C34.5726 26.9999 34.5613 26.9984 34.5411 26.9871C34.5203 26.9754 34.4826 26.9493 34.4341 26.8956L31 23.0766ZM10 8C7.23858 8 5 10.2386 5 13V27C5 29.7614 7.23858 32 10 32H24C26.7614 32 29 29.7614 29 27V13C29 10.2386 26.7614 8 24 8H10Z" fill="#161616"/>
</svg>

<svg width="40" height="40" viewBox="0 0 40 40" fill="none" xmlns="http://www.w3.org/2000/svg"><path fill-rule="evenodd" clip-rule="evenodd" d="M15.352 13.545c.188.198.382.402.597.617.613.613.908 1.257.89 1.965a3.032 3.032 0 0 1-.146.817 8.746 8.746 0 0 1-.104.311l-.01.028-.08.233c-.1.31-.13.518-.07.761.039.16.13.383.341.68.139.195.33.422.592.684.66.66 1.099.868 1.364.933.079.019.154.029.23.03.159.002.321-.034.53-.102.074-.024.148-.05.233-.08l.027-.01c.093-.032.2-.069.311-.103.221-.069.5-.14.817-.147.708-.02 1.352.275 1.966.888.212.213.415.405.61.591l.007.007c.194.184.388.368.56.546.33.337.7.76.876 1.294.201.606.107 1.2-.183 1.769-.27.526-.724 1.066-1.315 1.658l-.046.043-.018.018-.005.006c-.03.03-.078.079-.134.133a3.213 3.213 0 0 1-.528.409c-.474.293-1.132.52-1.996.468-1.669-.1-3.946-1.23-7.186-4.47-3.242-3.24-4.372-5.518-4.474-7.186-.053-.865.174-1.522.467-1.997.142-.23.292-.405.409-.528.054-.057.103-.104.133-.134l.006-.005.018-.02.043-.045c.593-.592 1.134-1.047 1.66-1.316.57-.292 1.165-.385 1.771-.184.533.177.956.55 1.292.878.175.17.357.363.539.554l.006.006Zm-3.928 1.553-.004.005a3.141 3.141 0 0 0-.086.085c-.053.056-.107.121-.157.202-.091.147-.2.398-.173.824.056.911.739 2.74 3.892 5.893 3.152 3.152 4.982 3.834 5.893 3.89.425.025.676-.083.823-.174.08-.05.146-.105.202-.158.029-.027.054-.053.086-.086l.004-.004a2.12 2.12 0 0 1 .098-.096c.537-.54.805-.895.927-1.133a.601.601 0 0 0 .07-.19.076.076 0 0 0-.004-.04c-.023-.069-.107-.216-.409-.526a19.906 19.906 0 0 0-.507-.493l-.012-.012c-.193-.183-.41-.39-.641-.62-.17-.17-.29-.246-.37-.279a.272.272 0 0 0-.125-.025h-.004a1.084 1.084 0 0 0-.28.059 6.773 6.773 0 0 0-.24.08l-.028.01c-.082.03-.178.063-.277.095-.458.148-1.085.3-1.852.111-.746-.182-1.493-.652-2.302-1.46-.809-.81-1.279-1.557-1.462-2.302a3.096 3.096 0 0 1 .012-1.51c.03-.123.065-.237.099-.343.031-.098.065-.194.094-.277l.01-.028c.032-.093.058-.168.08-.24.044-.143.057-.224.058-.28v-.004c.002-.042.008-.184-.304-.495a34.206 34.206 0 0 1-.628-.65l-.005-.004c-.19-.2-.347-.366-.493-.508-.31-.303-.457-.387-.525-.41a.07.07 0 0 0-.038-.004.599.599 0 0 0-.19.07c-.239.122-.595.39-1.136.93a2.107 2.107 0 0 1-.096.097Z" fill="#161616"/><path fill-rule="evenodd" clip-rule="evenodd" d="M3 13a7 7 0 0 1 7-7h14a7 7 0 0 1 7 7v1.938l1.963-2.174c.365-.405.83-.675 1.355-.746.52-.07 1.015.068 1.42.328.8.514 1.263 1.489 1.262 2.561L36.986 26.1c0 1.073-.465 2.047-1.266 2.558a2.1 2.1 0 0 1-1.42.323c-.524-.072-.988-.343-1.352-.747L31 26.068V27a7 7 0 0 1-7 7H10a7 7 0 0 1-7-7V13Zm28 10.077v-5.154l3.448-3.82a.438.438 0 0 1 .107-.09.097.097 0 0 1 .03-.013h.005l.01.002c.01.002.029.009.057.027.118.076.343.346.343.877l-.014 11.193c0 .53-.225.798-.342.873a.194.194 0 0 1-.057.026c-.009.003-.014.002-.014.002s-.012-.002-.032-.013a.446.446 0 0 1-.107-.091L31 23.076ZM10 8a5 5 0 0 0-5 5v14a5 5 0 0 0 5 5h14a5 5 0 0 0 5-5V13a5 5 0 0 0-5-5H10Z" fill="#161616"/></svg>
